X: 36069
T: Scartaglen, The
R: reel
M: 4/4
K: Dmajor
D2ED FAdB|A2FD EA,A,2|D2ED FAdB|AFDF EFDA,|
D2ED FAdB|A2FD E3A|d2cd BcdB|AFED B,DD2||
|:Adfd edfd|Adfd eBB2|Adfd edfd|AFDE FEE2|
Adfd edfd|Adfd eBB2|g3e fgfe|1 dBAF E3B:|2 dBAF E4||

